public/top.svg

<svg width="1776" height="778" viewBox="0 0 1776 778" fill="none" xmlns="http://www.w3.org/2000/svg">
<path d="M-91.7164 5.04482C-53.9765 11.602 17.5873 16.1184 114.366 19.1447C211.205 22.1729 333.454 23.7124 472.669 24.2835C729.421 25.3368 1043.94 23.0965 1363.31 20.8216C1390.27 20.6295 1417.28 20.4372 1444.28 20.2466C1791.1 17.7984 2138.37 15.6333 2418.64 17.9066C2558.78 19.0432 2682.15 21.2894 2780.32 25.1635C2878.56 29.04 2951.41 34.5418 2990.61 42.1535C3029.53 49.7108 3058.45 66.715 3079.36 90.6086C3100.31 114.533 3113.36 145.518 3120.28 181.218C3134.13 252.686 3123.26 342.524 3102.47 430.768C3081.69 518.95 3051.06 605.257 3025.62 669.541C3012.9 701.677 3001.48 728.296 2993.24 746.878C2989.12 756.169 2985.8 763.45 2983.5 768.406C2982.36 770.884 2981.47 772.78 2980.87 774.056C2980.78 774.234 2980.71 774.4 2980.63 774.553L2980.31 774.551L2974.65 774.512C2969.64 774.477 2962.21 774.426 2952.5 774.357C2933.07 774.221 2904.52 774.019 2868.03 773.755C2795.04 773.227 2690.28 772.45 2563.17 771.459C2308.95 769.477 1965.37 766.634 1607.88 763.192C892.864 756.308 122.328 747.028 -100.06 737.448C-210.429 732.694 -283.484 681.42 -326.54 608.045C-369.672 534.54 -382.796 438.659 -372.688 344.778C-362.581 250.905 -329.278 159.357 -279.94 94.6027C-230.607 29.8545 -165.548 -7.7833 -91.7164 5.04482Z" fill="#F3F3F3" stroke="black" stroke-width="5"/>
</svg>

<svg width="1776" height="778" fill="none" xmlns="http://www.w3.org/2000/svg"><path d="M-91.716 5.045c37.74 6.557 109.303 11.073 206.082 14.1 96.839 3.028 219.088 4.567 358.303 5.139 256.752 1.053 571.271-1.188 890.641-3.462 26.96-.192 53.97-.385 80.97-.575 346.82-2.449 694.09-4.614 974.36-2.34 140.14 1.136 263.51 3.382 361.68 7.256 98.24 3.877 171.09 9.379 210.29 16.99 38.92 7.558 67.84 24.562 88.75 48.456 20.95 23.924 34 54.909 40.92 90.609 13.85 71.468 2.98 161.306-17.81 249.55-20.78 88.182-51.41 174.489-76.85 238.773-12.72 32.136-24.14 58.755-32.38 77.337a1413.48 1413.48 0 0 1-9.74 21.528 713.366 713.366 0 0 1-2.63 5.65c-.09.178-.16.344-.24.497l-.32-.002-5.66-.039c-5.01-.035-12.44-.086-22.15-.155-19.43-.136-47.98-.338-84.47-.602-72.99-.528-177.75-1.305-304.86-2.296-254.22-1.982-597.8-4.825-955.29-8.267-715.016-6.884-1485.552-16.164-1707.94-25.744-110.369-4.754-183.424-56.028-226.48-129.403-43.132-73.505-56.256-169.386-46.148-263.267 10.107-93.873 43.41-185.421 92.748-250.175C-230.607 29.855-165.548-7.783-91.716 5.045Z" fill="#F3F3F3" stroke="#000" stroke-width="5"/></svg>
